public/winner-cup.svg

<svg width="12" height="11" viewBox="0 0 12 11" fill="none" xmlns="http://www.w3.org/2000/svg">
<path d="M11.5954 0.401957C11.3463 0.154162 10.999 -0.000209309 10.6185 2.13012e-07H9.98714H9.66691H2.33311H2.0131H1.3816C1.00123 -0.000209309 0.65372 0.154162 0.404696 0.401957C0.155227 0.64931 -0.000187331 0.994509 1.69467e-07 1.3723V2.09106C1.69467e-07 2.97564 0.542181 3.77105 1.36901 4.09954L1.38136 4.10438L2.8171 4.54128C2.88851 4.63319 2.96377 4.72317 3.04777 4.80916C3.581 5.35383 4.0993 5.71958 4.45641 6.01648C4.63506 6.16428 4.77111 6.29454 4.85082 6.4053C4.89113 6.46057 4.91776 6.50993 4.93461 6.55546C4.95125 6.60121 4.95913 6.64311 4.95913 6.69205C4.95913 7.38242 4.95913 6.98347 4.95913 7.67385C4.95913 7.81658 4.93885 7.93919 4.90517 8.04042C4.8538 8.19269 4.77575 8.2958 4.67982 8.36613C4.58302 8.4356 4.46237 8.47708 4.30116 8.47774C3.72638 8.47774 3.72083 8.47774 3.72041 8.47774H3.40018V10.331H8.5998V8.47774H8.27957C8.27957 8.47774 8.2738 8.47774 7.69902 8.47774C7.59156 8.47774 7.50182 8.45846 7.42569 8.42587C7.31205 8.37609 7.22401 8.29815 7.15471 8.17702C7.08648 8.05611 7.04085 7.88837 7.04085 7.67385C7.04085 6.98347 7.04085 7.38242 7.04085 6.69205C7.04106 6.64311 7.04896 6.60121 7.06539 6.55546C7.09417 6.47647 7.15621 6.38244 7.26194 6.27254C7.41908 6.10734 7.66724 5.91549 7.96319 5.68148C8.25911 5.44662 8.60214 5.16687 8.95223 4.80916C9.03623 4.72317 9.11172 4.63319 9.18292 4.54128L10.6188 4.10438L10.631 4.09954C11.458 3.77105 12 2.97564 12 2.09106V1.3723C12.0002 0.994509 11.845 0.64931 11.5954 0.401957ZM1.59839 3.50549C1.01935 3.27148 0.640267 2.71262 0.640267 2.09106V1.3723C0.640455 1.16816 0.722767 0.985826 0.857299 0.851755C0.992674 0.717917 1.17581 0.63618 1.38157 0.635947H2.01202C2.01136 0.783986 2.0105 0.932211 2.0105 1.07962C2.01094 1.76152 2.0265 2.43414 2.16167 3.07032C2.21028 3.29816 2.27529 3.52118 2.36058 3.73739L1.59839 3.50549ZM9.21217 2.93857C9.1529 3.21645 9.06953 3.47458 8.95312 3.71197C8.8367 3.94961 8.6879 4.16686 8.49325 4.36593C8.00437 4.86592 7.52167 5.20709 7.13322 5.52857C6.9392 5.69016 6.76651 5.84709 6.63048 6.03259C6.56289 6.12536 6.50509 6.22616 6.46417 6.33712C6.42325 6.44767 6.40044 6.56838 6.40063 6.69205C6.40063 7.38242 6.40063 6.98347 6.40063 7.67385C6.40063 7.87629 6.42922 8.06647 6.48721 8.24035C6.57355 8.50083 6.72941 8.7253 6.94283 8.87969C7.1556 9.03472 7.42021 9.11454 7.69907 9.11371C7.80374 9.11371 7.88924 9.11371 7.9596 9.11371V9.69504H4.04045V9.11371C4.1108 9.11371 4.1963 9.11371 4.30119 9.11371C4.48733 9.11392 4.66642 9.07918 4.82865 9.00953C5.07256 8.90532 5.27361 8.72046 5.40388 8.48749C5.53501 8.25455 5.59939 7.97712 5.59939 7.67387C5.59939 6.98349 5.59939 7.38245 5.59939 6.69207C5.59963 6.56841 5.5768 6.4477 5.53588 6.33714C5.46381 6.14231 5.34252 5.98114 5.20199 5.83419C4.98962 5.61373 4.72695 5.41573 4.43638 5.18468C4.14598 4.95427 3.82747 4.69379 3.5068 4.36596C3.31215 4.16689 3.16334 3.94961 3.04693 3.71199C2.87253 3.35622 2.77189 2.95235 2.71646 2.50828C2.66082 2.06482 2.65081 1.58303 2.65081 1.07964C2.65081 0.933515 2.65144 0.78529 2.65229 0.63597H9.34797C9.34839 0.78529 9.34926 0.933492 9.34926 1.07964C9.34966 1.75095 9.3307 2.38353 9.21217 2.93857ZM11.36 2.09106C11.36 2.71262 10.9807 3.27148 10.4016 3.50549L9.639 3.73737C9.78398 3.37058 9.86927 2.98367 9.91896 2.58681C9.98013 2.09718 9.98929 1.59104 9.98953 1.0796C9.98953 0.932211 9.98868 0.783963 9.98803 0.635924H10.6185C10.8242 0.636156 11.0076 0.71787 11.1427 0.851731C11.2773 0.985779 11.3598 1.1679 11.36 1.37228V2.09106Z" fill="#FFF1E2"/>
</svg>

<svg xmlns="http://www.w3.org/2000/svg" width="12" height="11" fill="none"><path fill="#FFF1E2" d="M11.595.402A1.383 1.383 0 0 0 10.618 0H1.382c-.38 0-.728.154-.977.402C.155.649 0 .995 0 1.372v.72C0 2.975.542 3.77 1.369 4.1l.012.004 1.436.437c.072.092.147.182.23.268.534.545 1.052.91 1.41 1.207.178.148.314.279.394.39.04.055.067.104.084.15a.382.382 0 0 1 .024.136v.982c0 .143-.02.265-.054.366a.64.64 0 0 1-.225.326.629.629 0 0 1-.379.112H3.401v1.853H8.6V8.478h-.901a.686.686 0 0 1-.273-.052.562.562 0 0 1-.271-.249 1.022 1.022 0 0 1-.114-.503v-.982c0-.049.008-.09.024-.137a.857.857 0 0 1 .197-.282c.157-.166.405-.358.701-.592.296-.234.64-.514.99-.872.083-.086.159-.176.23-.268l1.436-.437.012-.004A2.163 2.163 0 0 0 12 2.09v-.719c0-.377-.155-.723-.405-.97ZM1.598 3.505A1.527 1.527 0 0 1 .64 2.091v-.719a.74.74 0 0 1 .741-.736h.631l-.002.444c0 .682.017 1.354.152 1.99.048.228.113.451.199.667l-.763-.232Zm7.614-.566a3.32 3.32 0 0 1-.259.773 2.488 2.488 0 0 1-.46.654c-.489.5-.971.841-1.36 1.163a2.924 2.924 0 0 0-.503.504 1.255 1.255 0 0 0-.166.304 1.02 1.02 0 0 0-.063.355v.982c0 .202.028.392.086.566.087.26.242.485.456.64.213.155.477.235.756.234h.26v.581H4.04v-.581h.261c.186 0 .365-.035.528-.104.244-.105.445-.29.575-.523.131-.232.195-.51.195-.813v-.982a1.02 1.02 0 0 0-.063-.355 1.47 1.47 0 0 0-.334-.503c-.212-.22-.475-.418-.766-.65-.29-.23-.609-.49-.93-.818a2.488 2.488 0 0 1-.46-.654c-.173-.356-.274-.76-.33-1.204a11.688 11.688 0 0 1-.065-1.428l.001-.444h6.696l.001.444c0 .67-.018 1.304-.137 1.859Zm2.148-.848c0 .622-.38 1.18-.958 1.414l-.763.232c.145-.366.23-.753.28-1.15.061-.49.07-.996.07-1.507L9.989.636h.63a.74.74 0 0 1 .742.736v.72Z"/></svg>
